X:1
T:Title
L:1/8
M:4/4
I:linebreak $
K:D
V:1 treble nm="Voice"
V:1
"D" DFAF"G" DGBG |"A" Aceg fdAF |"D" DFAF"G" DGBG |"D" DFAF"A" E2 E2 |"D" DFAF"G" DGBG | %5
"A" Aceg"D" fddf |"G" g2 f2"A" edeg |[M:2/4]"D" fd d2 ::[M:4/4]"A" efgf edcd | efea aa a2 | %10
 ef g2"D" f2 ed |"A" eg f2"D" d2 d2 :| %12
